local/share/icons/dracula-icons-main/scalable/apps/libreoffice-template.svg

<?xml version="1.0" encoding="UTF-8"?>
<svg xmlns="http://www.w3.org/2000/svg" xmlns:xlink="http://www.w3.org/1999/xlink" width="64" height="64" viewBox="0 0 64 64">
<defs>
<filter id="filter-remove-color" x="0%" y="0%" width="100%" height="100%">
<feColorMatrix color-interpolation-filters="sRGB" values="0 0 0 0 1 0 0 0 0 1 0 0 0 0 1 0 0 0 1 0" />
</filter>
<mask id="mask-0">
<g filter="url(#filter-remove-color)">
<rect x="-6.4" y="-6.4" width="76.8" height="76.8" fill="rgb(0%, 0%, 0%)" fill-opacity="0.5"/>
</g>
</mask>
<clipPath id="clip-0">
<rect x="0" y="0" width="17" height="17"/>
</clipPath>
<g id="source-4992" clip-path="url(#clip-0)">
<path fill-rule="nonzero" fill="rgb(100%, 100%, 100%)" fill-opacity="1" d="M 9.847656 2.546875 L 14.386719 7.085938 C 13.859375 4.832031 12.097656 3.074219 9.847656 2.546875 Z M 9.847656 2.546875 "/>
</g>
</defs>
<path fill-rule="nonzero" fill="rgb(30.196078%, 30.196078%, 30.196078%)" fill-opacity="1" d="M 15.609375 8.464844 C 15.609375 12.410156 12.410156 15.609375 8.464844 15.609375 C 4.519531 15.609375 1.324219 12.410156 1.324219 8.464844 C 1.324219 4.519531 4.519531 1.324219 8.464844 1.324219 C 12.410156 1.324219 15.609375 4.519531 15.609375 8.464844 Z M 15.609375 8.464844 "/>
<g mask="url(#mask-0)">
<use xlink:href="#source-4992"/>
</g>
<path fill-rule="nonzero" fill="rgb(100%, 100%, 100%)" fill-opacity="1" d="M 8.195312 2.390625 C 4.945312 2.535156 2.382812 5.210938 2.382812 8.464844 C 2.382812 11.828125 5.105469 14.550781 8.464844 14.550781 C 11.71875 14.546875 14.394531 11.984375 14.539062 8.734375 Z M 8.195312 2.390625 "/>
<path fill-rule="nonzero" fill="rgb(80%, 80%, 80%)" fill-opacity="1" d="M 5.820312 6.878906 L 5.820312 8.324219 C 5.820312 8.324219 6.890625 7.554688 6.890625 8.949219 C 6.890625 10.34375 5.820312 9.789062 5.820312 9.789062 L 5.820312 11.113281 L 7.269531 11.113281 C 7.269531 11.113281 6.71875 10 7.964844 10.019531 C 9.300781 10.035156 8.714844 11.113281 8.714844 11.113281 L 10.054688 11.113281 L 10.054688 9.71875 C 10.054688 9.71875 11.105469 10.179688 11.113281 9.050781 C 11.121094 8.210938 10.714844 8.085938 10.054688 8.324219 L 10.054688 6.878906 L 8.730469 6.878906 C 8.730469 6.878906 9.265625 5.820312 7.984375 5.820312 C 6.703125 5.820312 7.269531 6.878906 7.269531 6.878906 "/>
</svg>

<svg width="64" height="64" version="1.1" viewBox="0 0 16.933 16.933" xmlns="http://www.w3.org/2000/svg" xmlns:xlink="http://www.w3.org/1999/xlink">
 <g>
  <circle cx="8.4665" cy="8.4665" r="7.1436" fill="#4d4d4d" style="paint-order:stroke fill markers"/>
  <path d="m9.8473 2.5466 4.5381 4.5381c-0.52723-2.2523-2.2858-4.0109-4.5381-4.5381z" fill="#fff" opacity=".5" stroke-width=".85185" style="paint-order:stroke fill markers"/>
  <path d="m8.1952 2.391c-3.2506 0.14506-5.812 2.8216-5.814 6.0755-1e-7 3.3608 2.7245 6.0853 6.0853 6.0853 3.2538-4e-3 5.9287-2.567 6.0719-5.8176z" fill="#fff" stroke-width=".85185" style="paint-order:stroke fill markers"/>
 </g>
 <path d="m5.82 6.879v1.447s1.07-0.77 1.07 0.622c0 1.394-1.07 0.842-1.07 0.842v1.322h1.448s-0.548-1.111 0.696-1.094c1.337 0.019 0.75 1.094 0.75 1.094h1.34v-1.393s1.05 0.46 1.058-0.668c8e-3 -0.84-0.396-0.964-1.058-0.725v-1.447h-1.323s0.535-1.058-0.747-1.058-0.716 1.058-0.716 1.058" fill="#ccc"/>
</svg>
